dist/img/star-o.svg

<svg width="18" height="18" viewBox="0 0 18 18" fill="none" xmlns="http://www.w3.org/2000/svg">
<path d="M10.2148 7.2197C10.3556 7.68316 10.7829 8 11.2673 8H14.6287C14.6629 8 14.6795 8.00945 14.6894 8.01711C14.7024 8.02717 14.716 8.04481 14.7239 8.06947C14.7318 8.09412 14.731 8.11643 14.7263 8.13214C14.7227 8.14411 14.7147 8.16145 14.6869 8.18135L11.9341 10.1489C11.5484 10.4245 11.3828 10.9163 11.523 11.3691L12.6047 14.8628C12.6148 14.8955 12.6107 14.9141 12.6063 14.9258C12.6005 14.9412 12.5877 14.9594 12.5665 14.9743C12.5453 14.9891 12.5238 14.9949 12.5074 14.9951C12.4949 14.9952 12.4759 14.9927 12.4487 14.972L9.66527 12.8597C9.27189 12.5612 8.72778 12.5614 8.33463 12.8602L5.55961 14.9696C5.53235 14.9903 5.51342 14.9928 5.50093 14.9927C5.48453 14.9925 5.46297 14.9868 5.44176 14.9719C5.42055 14.9571 5.40774 14.9388 5.40196 14.9234C5.39755 14.9118 5.39344 14.8931 5.40357 14.8604L6.48443 11.3695C6.62473 10.9163 6.45873 10.4243 6.07259 10.1487L3.31567 8.1814C3.28779 8.1615 3.27977 8.14416 3.27619 8.1322C3.2715 8.11649 3.27062 8.09418 3.27852 8.0695C3.28642 8.04483 3.3001 8.02718 3.31305 8.01711C3.3229 8.00945 3.3395 8 3.37376 8H6.73268C7.21705 8 7.64442 7.68317 7.7852 7.2197L8.90432 3.53536C8.91457 3.50162 8.92874 3.48862 8.93878 3.48165C8.95224 3.47232 8.9735 3.46442 9 3.46442C9.0265 3.46442 9.04776 3.47232 9.06122 3.48165C9.07126 3.48862 9.08543 3.50162 9.09568 3.53536L10.2148 7.2197Z" stroke="#F87C09"/>
</svg>

<svg width="18" height="18" fill="none" xmlns="http://www.w3.org/2000/svg"><path d="M10.215 7.22a1.1 1.1 0 0 0 1.052.78h3.362c.034 0 .05.01.06.017.013.01.027.028.035.052a.108.108 0 0 1 .002.063c-.003.012-.011.03-.04.05l-2.752 1.967a1.1 1.1 0 0 0-.411 1.22l1.082 3.494c.01.033.006.051.001.063a.108.108 0 0 1-.04.048.108.108 0 0 1-.059.021c-.012 0-.031-.002-.058-.023L9.665 12.86a1.1 1.1 0 0 0-1.33 0L5.56 14.97c-.028.02-.047.023-.06.023a.108.108 0 0 1-.058-.021.108.108 0 0 1-.04-.049c-.004-.011-.009-.03.002-.063l1.08-3.49a1.1 1.1 0 0 0-.411-1.221L3.316 8.18c-.028-.02-.036-.037-.04-.049a.108.108 0 0 1 .003-.063.108.108 0 0 1 .034-.052c.01-.008.026-.017.06-.017h3.36a1.1 1.1 0 0 0 1.052-.78l1.12-3.685c.01-.033.024-.046.034-.053A.109.109 0 0 1 9 3.464c.027 0 .048.008.061.018.01.007.024.02.035.053l1.119 3.685Z" stroke="#F87C09"/></svg>
